X:11
%%etbk:tnset id:4,pos:3,rep:3x,ant:
%%etbk:wsite http://www.thesession.org/tunes/display/1004
%%etbk:skill ?
%%etbk:pldat 2013-11-21T18:00,2013-11-13T17:36,2013-11-04T18:46,2013-10-24T18:59,2013-10-08T15:09,2013-09-01T15:32,2013-05-15T17:29
T: Tempest, The
Z: Piano Box Version by Martin Fleischmann
H: Created 2013-02-19 /  Last Modified 2013-02-19
M: 4/4
L: 1/8
R: Reel
K: Ddor
|:!5!d2 !4!c!3!A !2!G!1!E EE|!1!D!2!E!5!c!2!E !5!d!2!E!5!c!2!E|!5!d2 cA GE EE|!1!D!2!E!5!c!2!E !2!E!1!DD2|
d2 cA GE EE|DEcE dEcE|!1!D!2!E!3!F!5!A !4!G!2!E!5!c!2!E|!2!E!1!D!2!C!1!D !2!E!1!D D2:|
|:!3!d2 !4!e!3!d !2!c!1!A!1!G!2!c|!1!A!3!d!2!c!1!A !2!G!1!EEE|!3!d2 ed !2!cde!5!f|ed!2!c!1!A !3!d2 !5!a!4!g|
!2!e!5!age !1!d!3!c!1!A!2!B|!3!c!1!A!2!G!5!c !3!A!1!E!2!G!1!E|!1!DEFA GEcE|EDCD ED D2:|
